public/icons/tokens/knc.svg

<svg width="256" height="256" viewBox="0 0 256 256" fill="none" xmlns="http://www.w3.org/2000/svg">
  <path d="M128 256C198.692 256 256 198.692 256 128C256 57.3075 198.692 0 128 0C57.3075 0 0 57.3075 0 128C0 198.692 57.3075 256 128 256Z" fill="#6C8275"/>
  <path d="M118.179 128.005L187.467 167.694C188.024 168.029 188.66 168.209 189.31 168.217C189.959 168.224 190.599 168.059 191.164 167.737C191.728 167.415 192.197 166.949 192.521 166.386C192.846 165.823 193.015 165.184 193.01 164.534V91.421C193.018 90.7703 192.851 90.1293 192.527 89.5652C192.202 89.0011 191.732 88.5345 191.166 88.2144C190.599 87.8942 189.957 87.7322 189.306 87.7454C188.656 87.7585 188.02 87.9463 187.467 88.289L118.179 128.005Z" fill="white"/>
  <path d="M185.998 70.717L138.632 35.879C138.142 35.5025 137.566 35.2525 136.956 35.1511C136.345 35.0498 135.72 35.1001 135.134 35.2977C134.547 35.4954 134.019 35.8342 133.595 36.2844C133.171 36.7346 132.864 37.2822 132.701 37.879L115.407 115.478L185.582 76.678C186.116 76.4034 186.57 75.9957 186.901 75.4943C187.231 74.9929 187.427 74.4147 187.469 73.8157C187.511 73.2166 187.397 72.6169 187.14 72.0744C186.882 71.532 186.489 71.0651 185.998 70.719" fill="white"/>
  <path d="M138.577 220.104L185.998 185.265C186.495 184.915 186.895 184.444 187.157 183.895C187.42 183.347 187.537 182.74 187.498 182.134C187.458 181.527 187.264 180.941 186.933 180.431C186.602 179.921 186.145 179.505 185.607 179.222L115.407 140.422L132.701 218.022C132.845 218.625 133.136 219.183 133.548 219.645C133.961 220.108 134.482 220.461 135.064 220.673C135.647 220.884 136.273 220.948 136.886 220.858C137.499 220.767 138.08 220.526 138.577 220.156" fill="white"/>
  <path d="M100.163 126.564L118.178 42.309C118.315 41.611 118.24 40.8882 117.964 40.2328C117.688 39.5774 117.223 39.0194 116.627 38.63C116.032 38.2405 115.335 38.0375 114.623 38.0468C113.912 38.056 113.22 38.2772 112.635 38.682L66.4892 74.071C65.3206 74.9674 64.3749 76.1217 63.7258 77.4438C63.0767 78.766 62.7418 80.2201 62.7472 81.693V171.493C62.7245 172.984 63.0511 174.461 63.7009 175.803C64.3506 177.146 65.3055 178.318 66.4892 179.226L112.413 214.508C112.998 214.913 113.691 215.135 114.403 215.144C115.114 215.153 115.812 214.95 116.408 214.56C117.003 214.17 117.469 213.611 117.744 212.955C118.02 212.299 118.094 211.575 117.956 210.877L100.163 126.564Z" fill="white"/>
</svg>

<svg width="256" height="256" fill="none" xmlns="http://www.w3.org/2000/svg"><path d="M128 256c70.692 0 128-57.308 128-128C256 57.308 198.692 0 128 0 57.308 0 0 57.307 0 128c0 70.692 57.307 128 128 128Z" fill="#6C8275"/><path d="m118.179 128.005 69.288 39.689a3.662 3.662 0 0 0 3.697.043 3.657 3.657 0 0 0 1.846-3.203V91.421a3.637 3.637 0 0 0-1.844-3.207 3.632 3.632 0 0 0-3.699.075l-69.288 39.716ZM185.998 70.717l-47.366-34.838a3.764 3.764 0 0 0-5.037.405c-.424.45-.731.998-.894 1.595l-17.294 77.599 70.175-38.8a3.497 3.497 0 0 0 1.887-2.862 3.497 3.497 0 0 0-1.471-3.097M138.577 220.104l47.421-34.839a3.543 3.543 0 0 0 1.5-3.131 3.556 3.556 0 0 0-1.891-2.912l-70.2-38.8 17.294 77.6a3.746 3.746 0 0 0 4.185 2.836 3.755 3.755 0 0 0 1.691-.702" fill="#fff"/><path d="m100.163 126.564 18.015-84.255a3.575 3.575 0 0 0-5.543-3.627L66.489 74.071a9.562 9.562 0 0 0-3.742 7.622v89.8a9.559 9.559 0 0 0 3.742 7.733l45.924 35.282a3.576 3.576 0 0 0 5.543-3.631l-17.793-84.313Z" fill="#fff"/></svg>
